svgs/regular/truck-ramp-couch.svg

<svg xmlns="http://www.w3.org/2000/svg" viewBox="0 0 640 512"><!--! Font Awesome Pro 6.1.1 by @fontawesome - https://fontawesome.com License - https://fontawesome.com/license (Commercial License) Copyright 2022 Fonticons, Inc. --><path d="M352 88C352 39.4 391.4 0 440 0H616C629.3 0 640 10.75 640 24C640 37.25 629.3 48 616 48H440C417.9 48 400 65.91 400 88V360.7L425.7 353.7L426 353.6C443.7 314.9 482.7 288 528 288C589.9 288 640 338.1 640 400C640 461.9 589.9 512 528 512C468.2 512 419.3 465.1 416.2 406L30.31 511.2C17.52 514.6 4.329 507.1 .8443 494.3C-2.64 481.5 4.902 468.3 17.69 464.8L352 373.8V88zM528 336C492.7 336 464 364.7 464 400C464 435.3 492.7 464 528 464C563.3 464 592 435.3 592 400C592 364.7 563.3 336 528 336zM294.5 209.2C303.2 206.8 311.9 207 320 209.3V334.8L33.98 411.5L13.27 334.2C6.412 308.6 21.61 282.3 47.21 275.4C72.82 268.5 99.14 283.7 106 309.4L110.1 324.8L264.7 283.4L260.6 267.9C253.7 242.3 268.9 216 294.5 209.2V209.2zM8.023 252.8C-1.125 218.6 19.14 183.5 53.28 174.4L238.7 124.7C272.9 115.6 307.1 135.8 317.1 169.1L318.8 176.4C308.3 174.8 297.2 175.3 286.2 178.2C248.8 188.3 224.8 223.2 227 260.4L131.2 286C114.6 252.7 76.32 234.5 38.93 244.5C27.94 247.4 18.1 252.5 9.745 259.2L8.023 252.8z"/></svg>

<svg xmlns="http://www.w3.org/2000/svg" viewBox="0 0 640 512"><!--! Font Awesome Pro 6.4.2 by @fontawesome - https://fontawesome.com License - https://fontawesome.com/license (Commercial License) Copyright 2023 Fonticons, Inc. --><path d="M352 88c0-48.6 39.4-88 88-88H616c13.3 0 24 10.7 24 24s-10.7 24-24 24H440c-22.1 0-40 17.9-40 40V360.7l25.7-7 .4-.1c17.6-38.7 56.7-65.6 102-65.6c61.9 0 112 50.1 112 112s-50.1 112-112 112c-59.8 0-108.7-46.9-111.8-106L30.3 511.2c-12.8 3.5-26-4.1-29.5-16.8s4.1-26 16.8-29.5L352 373.8V88zM592 400a64 64 0 1 0 -128 0 64 64 0 1 0 128 0zM294.5 209.2c8.7-2.3 17.4-2.1 25.5 .2V334.8l-38.7 10.4L126.7 386.6 64.9 403.2c-17.1 4.6-34.6-5.6-39.2-22.6L13.3 334.2c-6.9-25.6 8.3-51.9 33.9-58.8s51.9 8.3 58.8 33.9l4.1 15.5 154.5-41.4-4.1-15.5c-6.9-25.6 8.3-51.9 33.9-58.8zM8 252.8c-9.1-34.1 11.1-69.2 45.3-78.4l185.5-49.7c34.1-9.1 69.2 11.1 78.4 45.3l1.7 6.4c-10.6-1.6-21.6-1.1-32.6 1.9c-37.4 10-61.5 44.9-59.2 82.1L131.2 286c-16.6-33.4-54.9-51.5-92.3-41.5c-11 2.9-20.8 8-29.2 14.7L8 252.8z"/></svg>
